images/jaws/jaw.svg

<svg width="152" height="104" viewBox="0 0 152 104" fill="none" xmlns="http://www.w3.org/2000/svg">
<path d="M5.97404 4.73254C-1.48213 9.40188 -0.754543 19.4045 1.71686 27.4295C3.33076 32.6701 7.93269 36.2111 13.275 37.4472C25.6144 40.3022 50.0478 45.096 75.2986 45.1822C110.893 45.3037 148.147 35.8599 149.318 35.2762C151.675 34.1021 152.08 22.5573 151.988 16.9316C151.841 3.15464 140.705 0.560442 128.861 0.962976C122.914 1.16511 117.122 2.76667 111.277 3.88763C110.991 3.94254 110.709 3.99477 110.432 4.04444C103.125 5.35219 95.9422 2.90231 88.666 1.43199C72.6874 -1.79686 62.567 4.04867 60.6603 4.73254C58.819 5.39295 54.9217 5.00771 53.2031 4.73254L38.8411 1.7057C32.1817 0.0241173 16.2852 -1.72473 5.97404 4.73254Z" fill="#F5F5F5"/>
<path d="M151.488 16.937L151.488 16.9398C151.534 19.7404 151.456 24.0119 151.074 27.7221C150.883 29.5795 150.618 31.2767 150.261 32.5728C150.082 33.2216 149.885 33.7513 149.673 34.1445C149.457 34.5463 149.255 34.7483 149.097 34.8278C149.097 34.8278 149.087 34.8323 149.062 34.8416C149.034 34.852 148.996 34.8652 148.947 34.8815C148.849 34.914 148.715 34.9553 148.545 35.005C148.205 35.1044 147.732 35.2344 147.135 35.3906C145.94 35.703 144.255 36.1181 142.152 36.5999C137.947 37.5636 132.077 38.7933 125.131 40.001C111.238 42.417 93.0572 44.7428 75.3003 44.6822C50.1035 44.5962 25.7117 39.8115 13.3877 36.96C8.17859 35.7548 3.74501 32.3164 2.19471 27.2824C0.969409 23.3036 0.18865 18.8699 0.619724 14.8763C1.0494 10.8956 2.67569 7.38805 6.23941 5.15631C11.2874 1.99507 17.737 0.825521 23.7901 0.66688C29.8368 0.508407 35.4302 1.36009 38.7187 2.19048L38.7283 2.19291L38.738 2.19495L53.1 5.2218L53.112 5.22432L53.1241 5.22625C54.0006 5.36661 55.4256 5.53413 56.8687 5.5831C58.2906 5.63134 59.8105 5.56853 60.8291 5.20319C61.0749 5.11504 61.4219 4.96008 61.8703 4.75983C63.333 4.10663 65.8749 2.9715 69.5028 2.1012C74.2077 0.972547 80.6583 0.323957 88.567 1.92209C90.0812 2.22808 91.5909 2.57658 93.1063 2.9264C93.403 2.99488 93.6998 3.06341 93.997 3.13169C95.8085 3.54787 97.6279 3.95368 99.4511 4.27252C103.098 4.91022 106.785 5.20502 110.52 4.53661C110.799 4.48659 111.083 4.43398 111.372 4.37868C112.888 4.08782 114.392 3.76699 115.891 3.44743C120.219 2.52419 124.499 1.61154 128.878 1.46269C134.778 1.26216 140.411 1.81499 144.573 4.06961C146.643 5.19149 148.347 6.73301 149.544 8.81693C150.743 10.9028 151.452 13.5604 151.488 16.937Z" stroke="#C7C7CC" stroke-opacity="0.6"/>
<path d="M6.767 30.3231C8.31369 29.2958 9.13562 34.4201 9.28907 37.1106L9.98926 47.0167C9.71306 47.9339 8.84766 49.695 7.59558 49.4014C6.03049 49.0346 5.01778 44.5401 4.83365 41.3299C4.64952 38.1196 4.83365 31.6072 6.767 30.3231Z" fill="white" stroke="#C7C7C7" stroke-width="1.5"/>
<path d="M14.392 33.1727L15.3294 34.4507L16.0659 47.6588C10.843 54.1965 8.47533 44.7119 9.31545 36.3863C9.5164 34.395 9.81457 32.5594 10.0817 31.1487C10.6137 28.34 12.7013 30.8677 14.392 33.1727Z" fill="white" stroke="#C7C7C7" stroke-width="1.5"/>
<path d="M24.0754 40.616V36.8811C24.0754 33.1116 24.7011 28.3769 28.4024 27.6632C35.3493 26.3236 36.5376 38.1602 36.0974 45.2214L35.8596 49.0345C35.7251 50.3747 33.8658 52.6326 32.7494 53.7829C32.5619 53.9761 32.3027 54.0793 32.0335 54.0793C31.8854 54.0793 31.7378 54.0477 31.6041 53.9842C28.9096 52.7043 27.0388 50.6958 25.8236 48.8049C24.2821 46.4062 24.0754 43.4673 24.0754 40.616Z" fill="white" stroke="#C7C7C7" stroke-width="1.5"/>
<path d="M53.8477 37.2939C53.8169 34.7496 52.8414 32.6182 51.4877 30.9588C48.2709 27.0153 42.0427 26.9263 38.8804 30.9138C37.1746 33.0647 35.8588 36.0315 35.8588 39.6788V53.4371C35.8281 54.2932 36.6447 55.8268 39.3572 56.097C41.2139 56.282 44.6515 56.3426 47.6005 56.3625C50.0737 56.3792 53.6635 56.2772 53.6635 53.804L53.5715 45.6407L53.8477 37.2939Z" fill="white" stroke="#C7C7C7" stroke-width="1.5"/>
<path d="M19.1039 28.03C19.9877 27.8833 22.7865 30.5371 24.0754 31.8824L25.3643 48.0255C21.9763 52.1347 20.2087 52.6728 19.7483 52.4282C17.9991 51.6333 14.5927 47.8604 14.961 39.1284C15.4213 28.2134 17.9991 28.2135 19.1039 28.03Z" fill="white" stroke="#C7C7C7" stroke-width="1.5"/>
<path d="M73.0109 29.8722C77.9794 34.9696 77.4271 45.3086 76.4618 54.7213C75.0808 58.0232 60.1663 57.106 57.1282 56.8309C54.2727 56.5723 53.6297 53.2713 53.6297 50.4042V41.4215C53.4955 38.0105 53.7039 32.161 58.5025 28.9584C62.8609 26.0496 69.3535 26.1199 73.0109 29.8722Z" fill="white" stroke="#C7C7C7" stroke-width="1.5"/>
<path d="M147.441 30.3231C145.895 29.2958 145.073 34.4201 144.919 37.1106L144.219 47.0167C144.495 47.9339 145.361 49.695 146.613 49.4014C148.178 49.0346 149.191 44.5401 149.375 41.3299C149.559 38.1196 149.375 31.6072 147.441 30.3231Z" fill="white" stroke="#C7C7C7" stroke-width="1.5"/>
<path d="M139.816 33.1727L138.879 34.4507L138.143 47.6588C143.365 54.1965 145.733 44.7119 144.893 36.3863C144.692 34.395 144.394 32.5594 144.127 31.1487C143.595 28.34 141.507 30.8677 139.816 33.1727Z" fill="white" stroke="#C7C7C7" stroke-width="1.5"/>
<path d="M130.133 40.616V36.8811C130.133 33.1116 129.507 28.3769 125.806 27.6632C118.859 26.3236 117.671 38.1602 118.111 45.2214L118.349 49.0345C118.483 50.3747 120.343 52.6326 121.459 53.7829C121.647 53.9761 121.906 54.0793 122.175 54.0793C122.323 54.0793 122.471 54.0477 122.604 53.9842C125.299 52.7043 127.17 50.6958 128.385 48.8049C129.926 46.4062 130.133 43.4673 130.133 40.616Z" fill="white" stroke="#C7C7C7" stroke-width="1.5"/>
<path d="M100.361 37.2939C100.392 34.7496 101.367 32.6182 102.721 30.9587C105.938 27.0153 112.166 26.9263 115.328 30.9138C117.034 33.0647 118.35 36.0315 118.35 39.6788V53.4371C118.38 54.2932 117.564 55.8268 114.851 56.097C112.995 56.282 109.557 56.3426 106.608 56.3625C104.135 56.3792 100.545 56.2772 100.545 53.804L100.637 45.6407L100.361 37.2939Z" fill="white" stroke="#C7C7C7" stroke-width="1.5"/>
<path d="M135.105 28.03C134.221 27.8833 131.422 30.5371 130.133 31.8824L128.844 48.0255C132.232 52.1347 134 52.6728 134.46 52.4282C136.209 51.6333 139.616 47.8604 139.248 39.1284C138.787 28.2134 136.209 28.2135 135.105 28.03Z" fill="white" stroke="#C7C7C7" stroke-width="1.5"/>
<path d="M81.2 29.8722C76.2316 34.9696 76.7838 45.3086 77.7491 54.7213C79.1302 58.0232 94.0446 57.106 97.0828 56.8309C99.9382 56.5723 100.581 53.2713 100.581 50.4042V41.4215C100.715 38.0105 100.507 32.161 95.7084 28.9584C91.3501 26.0496 84.8574 26.1199 81.2 29.8722Z" fill="white" stroke="#C7C7C7" stroke-width="1.5"/>
<path d="M109.816 101.653C150.404 103.995 146.04 75.7503 143.303 69.6608C141.95 66.6493 109.402 66.1928 76.5576 66.5104C49.2626 66.7744 21.7629 67.5729 11.7917 67.8839C9.26287 67.9628 7.22648 69.2936 7.11056 71.821C6.88298 76.7826 7.85791 85.5042 11.7673 92.2622C12.4347 93.4159 13.4162 94.3567 14.5972 94.9745C24.3981 100.102 39.0206 99.8473 45.439 99.012C54.1851 96.8107 61.3058 103.648 69.4995 103.648C76.1281 104.473 83.3695 102.681 90.1823 100.388C95.1862 98.7036 103.315 100.138 107.629 101.283C108.337 101.471 109.084 101.61 109.816 101.653Z" fill="#F5F5F5"/>
<path d="M69.5613 103.152L69.5305 103.148H69.4995C66.0864 103.148 62.8678 101.929 59.5321 100.666C58.9748 100.455 58.4143 100.243 57.8491 100.035C53.9492 98.6002 49.8656 97.3918 45.3457 98.5199C42.1676 98.9311 36.9574 99.1994 31.328 98.731C25.676 98.2607 19.6454 97.0512 14.829 94.5315C13.7319 93.9575 12.8201 93.0836 12.2001 92.0118C8.35411 85.3634 7.38517 76.7463 7.61003 71.8439C7.6614 70.724 8.13096 69.8954 8.85484 69.3277C9.59064 68.7507 10.6207 68.4207 11.8073 68.3837C21.7772 68.0727 49.2728 67.2743 76.5624 67.0104C92.9828 66.8516 109.322 66.8865 121.721 67.3369C127.923 67.5622 133.128 67.891 136.861 68.3497C138.73 68.5793 140.212 68.8394 141.261 69.1296C141.786 69.2751 142.183 69.423 142.459 69.5682C142.751 69.7221 142.833 69.834 142.847 69.8658C143.502 71.3223 144.276 74.1661 144.434 77.581C144.591 80.9906 144.131 84.9309 142.356 88.6011C138.837 95.8814 130.024 102.318 109.845 101.153C109.155 101.114 108.442 100.982 107.757 100.8C105.579 100.222 102.44 99.5707 99.2096 99.2765C95.9916 98.9834 92.6246 99.0382 90.0228 99.914C83.2215 102.203 76.0713 103.962 69.5613 103.152Z" stroke="#C7C7CC" stroke-opacity="0.6"/>
<path d="M10.5475 71.9539C11.4033 71.9113 12.1348 71.1235 12.6698 70.249C13.3473 69.1415 13.4445 67.8026 13.3491 66.5079L12.7571 58.4707C11.9797 58.1366 11.2836 57.8806 10.6642 57.6873C8.16968 56.9088 6.34818 58.8325 6.63208 61.4302C7.14994 66.1686 9.16162 72.023 10.5475 71.9539Z" fill="white" stroke="#C7C7C7" stroke-width="1.5"/>
<path d="M14.0711 58.3628C14.263 58.3677 14.4583 58.3792 14.6558 58.3965C18.4844 58.7315 20.6954 62.5655 20.7298 66.4086L20.741 67.6586C20.7568 69.4262 19.3329 72.16 17.8741 73.1581C15.8385 74.5507 14.7567 72.7427 14.0227 70.3881C12.7004 66.1467 12.4487 62.2594 12.5468 59.8795C12.5817 59.0323 13.2235 58.3412 14.0711 58.3628Z" fill="white" stroke="#C7C7C7" stroke-width="1.5"/>
<path d="M21.6788 60.0654C23.7911 59.9506 25.4836 59.973 26.8126 60.0731C29.4637 60.2727 30.8007 62.5335 30.8006 65.1922L30.8006 68.6801C30.8006 70.1123 30.4952 71.5407 29.5963 72.6557C27.8875 74.7755 25.0786 77.3213 24.1719 77.1823C23.3494 77.0562 22.0606 74.1688 21.2856 72.1362C21.0542 71.5293 20.9014 70.8934 20.8152 70.2497C20.1053 64.9473 20.1714 62.1836 20.4171 60.9447C20.5339 60.3557 21.0792 60.0979 21.6788 60.0654Z" fill="white" stroke="#C7C7C7" stroke-width="1.5"/>
<path d="M37.522 77.5648C40.5447 75.1546 42.6719 70.7361 42.9531 68.2851L42.8609 61.2225C42.8609 60.9697 36.8744 60.8575 32.6646 60.9094C31.6138 60.9223 30.7702 61.7607 30.7502 62.8114C30.7097 64.9331 30.6934 68.1694 30.8006 71.5871C30.8697 73.7922 31.4287 75.4634 32.1231 76.6729C33.2322 78.6049 35.7801 78.9537 37.522 77.5648Z" fill="white" stroke="#C7C7C7" stroke-width="1.5"/>
<path d="M45.1415 60.8195C49.2686 60.44 54.4745 60.6658 57.6976 61.2429C58.1722 61.3279 58.4987 61.7556 58.4805 62.2374L58.2339 68.7438C58.2339 69.7538 58.0494 71.0603 57.7983 72.342C57.2611 75.084 55.7975 77.5706 53.4027 79.0101C53.2579 79.0972 53.1119 79.1832 52.9652 79.2682C49.9006 81.043 45.9889 80.3544 44.7566 77.0343C43.229 72.9182 42.7542 67.4489 42.7264 63.5218C42.7165 62.1215 43.7471 60.9477 45.1415 60.8195Z" fill="white" stroke="#C7C7C7" stroke-width="1.5"/>
<path d="M68.9945 82.8381C76.7581 79.3945 76.1667 70.644 75.8201 61.4059C75.7977 60.7869 68.1183 60.3583 62.8865 60.6362C59.937 60.7929 58.1271 63.1088 58.1438 66.0624C58.2091 77.5957 62.52 82.0053 65.8218 83.1176C66.8611 83.4677 67.992 83.2827 68.9945 82.8381Z" fill="white" stroke="#C7C7C7" stroke-width="1.5"/>
<path d="M141.453 71.9539C140.597 71.9113 139.865 71.1235 139.33 70.249C138.653 69.1415 138.556 67.8026 138.651 66.5079L139.243 58.4707C140.02 58.1366 140.716 57.8806 141.336 57.6873C143.83 56.9088 145.652 58.8325 145.368 61.4302C144.85 66.1686 142.838 72.023 141.453 71.9539Z" fill="white" stroke="#C7C7C7" stroke-width="1.5"/>
<path d="M137.925 58.3628C137.734 58.3677 137.538 58.3792 137.341 58.3965C133.512 58.7315 131.301 62.5655 131.267 66.4086L131.256 67.6586C131.24 69.4262 132.664 72.16 134.123 73.1581C136.158 74.5507 137.24 72.7427 137.974 70.3881C139.296 66.1467 139.548 62.2594 139.45 59.8795C139.415 59.0323 138.773 58.3412 137.925 58.3628Z" fill="white" stroke="#C7C7C7" stroke-width="1.5"/>
<path d="M130.319 60.0654C128.207 59.9506 126.514 59.973 125.186 60.0731C122.534 60.2727 121.197 62.5335 121.197 65.1922L121.197 68.6801C121.198 70.1123 121.503 71.5407 122.402 72.6557C124.111 74.7755 126.919 77.3213 127.826 77.1823C128.649 77.0562 129.937 74.1688 130.712 72.1362C130.944 71.5293 131.097 70.8934 131.183 70.2497C131.893 64.9473 131.827 62.1836 131.581 60.9447C131.464 60.3557 130.919 60.0979 130.319 60.0654Z" fill="white" stroke="#C7C7C7" stroke-width="1.5"/>
<path d="M114.476 77.5648C111.453 75.1546 109.326 70.7361 109.044 68.2851L109.137 61.2225C109.137 60.9697 115.123 60.8575 119.333 60.9094C120.384 60.9223 121.227 61.7607 121.247 62.8114C121.288 64.9331 121.304 68.1694 121.197 71.5871C121.128 73.7922 120.569 75.4634 119.874 76.6729C118.765 78.6049 116.217 78.9537 114.476 77.5648Z" fill="white" stroke="#C7C7C7" stroke-width="1.5"/>
<path d="M106.856 60.8195C102.729 60.44 97.5231 60.6658 94.3 61.2429C93.8253 61.3279 93.4988 61.7556 93.5171 62.2374L93.7636 68.7438C93.7636 69.7538 93.9482 71.0603 94.1993 72.3421C94.7365 75.084 96.2001 77.5706 98.5948 79.0101C98.7396 79.0972 98.8856 79.1832 99.0324 79.2682C102.097 81.043 106.009 80.3544 107.241 77.0343C108.769 72.9182 109.243 67.4489 109.271 63.5218C109.281 62.1215 108.251 60.9477 106.856 60.8195Z" fill="white" stroke="#C7C7C7" stroke-width="1.5"/>
<path d="M83.004 82.8381C75.2404 79.3945 75.8318 70.644 76.1785 61.4059C76.2009 60.7869 83.8802 60.3583 89.112 60.6362C92.0615 60.7929 93.8714 63.1088 93.8547 66.0624C93.7895 77.5957 89.4785 82.0053 86.1767 83.1176C85.1374 83.4677 84.0065 83.2827 83.004 82.8381Z" fill="white" stroke="#C7C7C7" stroke-width="1.5"/>
</svg>

<svg width="152" height="104" fill="none" xmlns="http://www.w3.org/2000/svg"><path d="M5.974 4.733C-1.482 9.402-.755 19.404 1.717 27.43c1.614 5.24 6.216 8.781 11.558 10.017 12.34 2.855 36.773 7.649 62.024 7.735 35.594.122 72.848-9.322 74.019-9.906 2.357-1.174 2.762-12.719 2.67-18.344C151.841 3.155 140.705.56 128.861.963c-5.947.202-11.739 1.804-17.584 2.925-.286.055-.568.107-.845.156-7.307 1.308-14.49-1.142-21.766-2.612-15.979-3.229-26.099 2.617-28.006 3.3-1.841.66-5.738.276-7.457 0L38.841 1.707C32.181.024 16.285-1.724 5.974 4.733z" fill="#F5F5F5"/><path d="M151.488 16.937v.003c.046 2.8-.032 7.072-.414 10.782-.191 1.857-.456 3.555-.813 4.85-.179.65-.376 1.18-.588 1.572-.216.402-.418.604-.576.684l-.035.014-.115.04a12.32 12.32 0 01-.402.123c-.34.1-.813.23-1.41.386-1.195.312-2.88.727-4.983 1.209a332.561 332.561 0 01-17.021 3.4c-13.893 2.416-32.074 4.742-49.83 4.681-25.198-.086-49.59-4.87-61.913-7.722-5.21-1.205-9.643-4.644-11.193-9.678C.969 23.304.189 18.87.62 14.876c.43-3.98 2.056-7.488 5.62-9.72 5.047-3.16 11.497-4.33 17.55-4.49 6.047-.157 11.64.694 14.93 1.524l.01.003.009.002L53.1 5.222l.012.002.012.002c.877.14 2.302.308 3.745.357 1.422.048 2.941-.014 3.96-.38a17.55 17.55 0 001.041-.443c1.463-.653 4.005-1.788 7.633-2.659C74.208.973 80.658.324 88.567 1.922c1.514.306 3.024.655 4.54 1.004l.89.206c1.811.416 3.63.822 5.454 1.14 3.647.638 7.334.933 11.069.265.279-.05.563-.103.852-.158 1.516-.291 3.02-.612 4.519-.932 4.328-.923 8.608-1.835 12.987-1.984 5.9-.2 11.533.352 15.695 2.607 2.07 1.121 3.774 2.663 4.971 4.747 1.199 2.086 1.908 4.743 1.944 8.12z" stroke="#C7C7CC" stroke-opacity=".6"/><path d="M6.767 30.323c1.547-1.027 2.369 4.097 2.522 6.788l.7 9.906c-.276.917-1.141 2.678-2.393 2.384-1.566-.366-2.578-4.86-2.762-8.071-.184-3.21 0-9.723 1.933-11.007z" fill="#fff" stroke="#C7C7C7" stroke-width="1.5"/><path d="M14.392 33.173l.937 1.278.737 13.208c-5.223 6.538-7.59-2.947-6.75-11.273.2-1.991.499-3.827.766-5.237.532-2.809 2.62-.281 4.31 2.024zm9.683 7.443v-3.735c0-3.77.626-8.504 4.327-9.218 6.947-1.34 8.136 10.497 7.695 17.558l-.237 3.814c-.135 1.34-1.994 3.598-3.11 4.748a.993.993 0 01-.717.296.995.995 0 01-.429-.095c-2.694-1.28-4.565-3.288-5.78-5.18-1.542-2.398-1.749-5.337-1.749-8.188z" fill="#fff" stroke="#C7C7C7" stroke-width="1.5"/><path d="M53.848 37.294c-.031-2.544-1.007-4.676-2.36-6.335-3.217-3.944-9.445-4.033-12.608-.045-1.705 2.15-3.021 5.117-3.021 8.765v13.758c-.03.856.786 2.39 3.498 2.66 1.857.185 5.294.246 8.243.265 2.474.017 6.063-.085 6.063-2.558l-.091-8.163.276-8.347zM19.104 28.03c.884-.147 3.683 2.507 4.971 3.852l1.29 16.143c-3.389 4.11-5.156 4.648-5.617 4.403-1.749-.795-5.155-4.568-4.787-13.3.46-10.915 3.038-10.915 4.143-11.098z" fill="#fff" stroke="#C7C7C7" stroke-width="1.5"/><path d="M73.01 29.872c4.97 5.098 4.417 15.437 3.452 24.85-1.381 3.301-16.296 2.384-19.334 2.109-2.855-.259-3.498-3.56-3.498-6.427v-8.983c-.135-3.41.074-9.26 4.872-12.463 4.359-2.908 10.851-2.838 14.509.914zm74.431.451c-1.546-1.027-2.368 4.097-2.522 6.788l-.7 9.906c.276.917 1.142 2.678 2.394 2.384 1.565-.366 2.578-4.86 2.762-8.071.184-3.21 0-9.723-1.934-11.007z" fill="#fff" stroke="#C7C7C7" stroke-width="1.5"/><path d="M139.816 33.173l-.937 1.278-.736 13.208c5.222 6.538 7.59-2.947 6.75-11.273a62.174 62.174 0 00-.766-5.237c-.532-2.809-2.62-.281-4.311 2.024zm-9.683 7.443v-3.735c0-3.77-.626-8.504-4.327-9.218-6.947-1.34-8.135 10.497-7.695 17.558l.238 3.814c.134 1.34 1.994 3.598 3.11 4.748a.995.995 0 00.716.296.999.999 0 00.429-.095c2.695-1.28 4.566-3.288 5.781-5.18 1.541-2.398 1.748-5.337 1.748-8.188z" fill="#fff" stroke="#C7C7C7" stroke-width="1.5"/><path d="M100.361 37.294c.031-2.544 1.006-4.676 2.36-6.335 3.217-3.944 9.445-4.033 12.607-.045 1.706 2.15 3.022 5.117 3.022 8.765v13.758c.03.856-.786 2.39-3.499 2.66-1.856.185-5.294.246-8.243.265-2.473.017-6.063-.085-6.063-2.558l.092-8.163-.276-8.347zm34.744-9.264c-.884-.147-3.683 2.507-4.972 3.852l-1.289 16.143c3.388 4.11 5.156 4.648 5.616 4.403 1.749-.795 5.156-4.568 4.788-13.3-.461-10.915-3.039-10.915-4.143-11.098z" fill="#fff" stroke="#C7C7C7" stroke-width="1.5"/><path d="M81.2 29.872c-4.968 5.098-4.416 15.437-3.45 24.85 1.38 3.301 16.295 2.384 19.333 2.109 2.855-.259 3.498-3.56 3.498-6.427v-8.983c.134-3.41-.074-9.26-4.873-12.463-4.358-2.908-10.85-2.838-14.508.914z" fill="#fff" stroke="#C7C7C7" stroke-width="1.5"/><path d="M109.816 101.653c40.588 2.342 36.224-25.903 33.487-31.992-1.353-3.012-33.901-3.468-66.745-3.15-27.295.263-54.795 1.062-64.766 1.373-2.53.079-4.566 1.41-4.681 3.937-.228 4.962.747 13.683 4.656 20.441a7.04 7.04 0 002.83 2.713c9.801 5.127 24.424 4.872 30.842 4.037 8.746-2.201 15.867 4.636 24.06 4.636 6.63.825 13.87-.967 20.683-3.26 5.004-1.684 13.133-.25 17.447.895.708.188 1.455.327 2.187.37z" fill="#F5F5F5"/><path d="M69.561 103.152l-.03-.004h-.032c-3.413 0-6.631-1.219-9.967-2.482a191.7 191.7 0 00-1.683-.631c-3.9-1.435-7.983-2.643-12.503-1.515-3.178.411-8.389.68-14.018.211-5.652-.47-11.683-1.68-16.499-4.2a6.54 6.54 0 01-2.629-2.52c-3.846-6.648-4.815-15.265-4.59-20.167.051-1.12.521-1.949 1.245-2.516.736-.577 1.766-.907 2.952-.944 9.97-.311 37.466-1.11 64.755-1.374 16.42-.158 32.76-.124 45.159.327 6.202.225 11.407.554 15.14 1.013 1.869.23 3.351.49 4.4.78.525.145.922.293 1.198.438.292.154.374.266.388.298.655 1.456 1.429 4.3 1.587 7.715.157 3.41-.303 7.35-2.078 11.02-3.519 7.28-12.332 13.717-32.511 12.552a10.565 10.565 0 01-2.088-.353c-2.178-.578-5.317-1.23-8.547-1.523-3.218-.294-6.585-.239-9.187.637-6.801 2.289-13.952 4.048-20.462 3.238z" stroke="#C7C7CC" stroke-opacity=".6"/><path d="M10.547 71.954c.856-.043 1.588-.83 2.123-1.705.677-1.108.774-2.446.68-3.741l-.593-8.037a21.686 21.686 0 00-2.093-.784c-2.494-.778-4.316 1.146-4.032 3.743.518 4.739 2.53 10.593 3.915 10.524z" fill="#fff" stroke="#C7C7C7" stroke-width="1.5"/><path d="M14.071 58.363c.192.005.387.016.585.034 3.828.334 6.04 4.169 6.074 8.012l.011 1.25c.016 1.767-1.408 4.501-2.867 5.5-2.035 1.392-3.117-.416-3.851-2.77-1.323-4.242-1.574-8.13-1.476-10.51.035-.847.676-1.538 1.524-1.516z" fill="#fff" stroke="#C7C7C7" stroke-width="1.5"/><path d="M21.679 60.065c2.112-.114 3.805-.092 5.134.008 2.65.2 3.988 2.46 3.988 5.12v3.487c0 1.432-.306 2.86-1.205 3.976-1.709 2.12-4.517 4.665-5.424 4.526-.823-.126-2.111-3.013-2.886-5.046a8.44 8.44 0 01-.47-1.886c-.71-5.303-.645-8.066-.399-9.305.117-.59.662-.847 1.262-.88z" fill="#fff" stroke="#C7C7C7" stroke-width="1.5"/><path d="M37.522 77.565c3.023-2.41 5.15-6.829 5.431-9.28l-.092-7.063c0-.252-5.987-.364-10.196-.313a1.934 1.934 0 00-1.915 1.902c-.04 2.122-.057 5.358.05 8.776.07 2.205.629 3.876 1.323 5.086 1.11 1.932 3.657 2.28 5.399.892z" fill="#fff" stroke="#C7C7C7" stroke-width="1.5"/><path d="M45.142 60.82c4.127-.38 9.332-.154 12.556.423a.963.963 0 01.782.994l-.246 6.507c0 1.01-.185 2.316-.436 3.598-.537 2.742-2 5.229-4.395 6.668-.145.087-.291.173-.438.258-3.064 1.775-6.976 1.086-8.208-2.234-1.528-4.116-2.003-9.585-2.03-13.512-.01-1.4 1.02-2.574 2.415-2.703z" fill="#fff" stroke="#C7C7C7" stroke-width="1.5"/><path d="M68.995 82.838c7.763-3.444 7.172-12.194 6.825-21.432-.022-.62-7.702-1.048-12.933-.77-2.95.157-4.76 2.473-4.743 5.426.065 11.534 4.376 15.943 7.678 17.056 1.04.35 2.17.165 3.172-.28zm72.458-10.884c-.856-.043-1.588-.83-2.123-1.705-.677-1.108-.774-2.446-.679-3.741l.592-8.037a21.82 21.82 0 012.093-.784c2.494-.778 4.316 1.146 4.032 3.743-.518 4.739-2.53 10.593-3.915 10.524z" fill="#fff" stroke="#C7C7C7" stroke-width="1.5"/><path d="M137.925 58.363a9.48 9.48 0 00-.584.034c-3.829.334-6.04 4.169-6.074 8.012l-.011 1.25c-.016 1.767 1.408 4.501 2.867 5.5 2.035 1.392 3.117-.416 3.851-2.77 1.322-4.242 1.574-8.13 1.476-10.51-.035-.847-.677-1.538-1.525-1.516z" fill="#fff" stroke="#C7C7C7" stroke-width="1.5"/><path d="M130.319 60.065c-2.112-.114-3.805-.092-5.133.008-2.652.2-3.989 2.46-3.989 5.12v3.487c.001 1.432.306 2.86 1.205 3.976 1.709 2.12 4.517 4.665 5.424 4.526.823-.126 2.111-3.013 2.886-5.046a8.398 8.398 0 00.471-1.886c.71-5.303.644-8.066.398-9.305-.117-.59-.662-.847-1.262-.88z" fill="#fff" stroke="#C7C7C7" stroke-width="1.5"/><path d="M114.476 77.565c-3.023-2.41-5.15-6.829-5.432-9.28l.093-7.063c0-.252 5.986-.364 10.196-.313a1.933 1.933 0 011.914 1.902c.041 2.122.057 5.358-.05 8.776-.069 2.205-.628 3.876-1.323 5.086-1.109 1.932-3.657 2.28-5.398.892z" fill="#fff" stroke="#C7C7C7" stroke-width="1.5"/><path d="M106.856 60.82c-4.127-.38-9.333-.154-12.556.423a.962.962 0 00-.783.994l.247 6.507c0 1.01.184 2.316.435 3.598.538 2.742 2.001 5.229 4.396 6.668.145.087.29.173.437.258 3.065 1.775 6.977 1.086 8.209-2.234 1.528-4.116 2.002-9.585 2.03-13.512.01-1.4-1.02-2.574-2.415-2.703z" fill="#fff" stroke="#C7C7C7" stroke-width="1.5"/><path d="M83.004 82.838c-7.764-3.444-7.172-12.194-6.826-21.432.023-.62 7.702-1.048 12.934-.77 2.95.157 4.76 2.473 4.743 5.426-.066 11.534-4.377 15.943-7.678 17.056-1.04.35-2.17.165-3.173-.28z" fill="#fff" stroke="#C7C7C7" stroke-width="1.5"/></svg>
